app/public/dtpr-icons/personal_device.svg

<svg width="36" height="36" viewBox="0 0 36 36" fill="none" xmlns="http://www.w3.org/2000/svg">
<path d="M31.8564 8.8453L19 1.42265C18.3812 1.06538 17.6188 1.06538 17 1.42265L4.14359 8.8453C3.52479 9.20257 3.14359 9.86282 3.14359 10.5774V25.4226C3.14359 26.1372 3.52479 26.7974 4.14359 27.1547L17 34.5774C17.6188 34.9346 18.3812 34.9346 19 34.5774L31.8564 27.1547C32.4752 26.7974 32.8564 26.1372 32.8564 25.4226V10.5774C32.8564 9.86282 32.4752 9.20256 31.8564 8.8453Z" stroke="black" stroke-width="2"/>
<path d="M22.1667 8.84165L13.8333 8.83331C12.9167 8.83331 12.1667 9.58331 12.1667 10.5V25.5C12.1667 26.4166 12.9167 27.1666 13.8333 27.1666H22.1667C23.0833 27.1666 23.8333 26.4166 23.8333 25.5V10.5C23.8333 9.58331 23.0833 8.84165 22.1667 8.84165ZM22.1667 23.8333H13.8333V12.1666H22.1667V23.8333Z" fill="black"/>
</svg>

<svg xmlns="http://www.w3.org/2000/svg" width="36" height="36" fill="none"><path stroke="#000" stroke-width="2" d="M31.856 8.845 19 1.423a2 2 0 0 0-2 0L4.144 8.845a2 2 0 0 0-1 1.732v14.846a2 2 0 0 0 1 1.732L17 34.577a2 2 0 0 0 2 0l12.856-7.422a2 2 0 0 0 1-1.732V10.577a2 2 0 0 0-1-1.732Z"/><path fill="#000" d="m22.167 8.842-8.334-.009c-.916 0-1.666.75-1.666 1.667v15c0 .917.75 1.667 1.666 1.667h8.334c.916 0 1.666-.75 1.666-1.667v-15c0-.917-.75-1.658-1.666-1.658m0 14.991h-8.334V12.167h8.334z"/></svg>
